src/4-icons/ticket-totem.svg

<svg width="260" height="260" viewBox="0 0 260 260" fill="none" xmlns="http://www.w3.org/2000/svg">
<path d="M93.4739 153.781L87.966 152.171C84.1733 151.067 80.9744 148.502 79.0719 145.04C77.1694 141.578 76.7191 137.502 77.8199 133.709C78.7518 130.477 80.7537 127.657 83.4977 125.712" fill="white"/>
<path d="M93.4739 153.781L87.966 152.171C84.1733 151.067 80.9744 148.502 79.0719 145.04C77.1694 141.578 76.7191 137.502 77.8199 133.709V133.709C78.7518 130.477 80.7537 127.657 83.4977 125.712" stroke="black" stroke-width="8" stroke-linecap="round" stroke-linejoin="round"/>
<path d="M99.9613 133.349L84.8371 128.85C82.8409 128.257 80.9811 127.276 79.3641 125.963C77.7471 124.651 76.4045 123.033 75.4131 121.201C74.4216 119.37 73.8008 117.361 73.586 115.289C73.3712 113.218 73.5667 111.124 74.1612 109.128C75.1902 105.655 77.3819 102.641 80.3688 100.591" fill="white"/>
<path d="M99.9613 133.349L84.8371 128.85C82.8409 128.257 80.9811 127.276 79.3641 125.963C77.7471 124.651 76.4045 123.033 75.4131 121.201C74.4216 119.37 73.8008 117.361 73.586 115.289C73.3712 113.218 73.5667 111.124 74.1612 109.128V109.128C75.1902 105.655 77.3819 102.641 80.3688 100.591" stroke="black" stroke-width="8" stroke-linecap="round" stroke-linejoin="round"/>
<path d="M171.434 252.503L187.788 154.661L167.576 78.6898C166.724 76.5118 165.236 74.6415 163.304 73.3235C161.373 72.0055 159.088 71.3012 156.75 71.3026H86.5967C82.9637 71.301 79.4481 72.5894 76.6764 74.9382C73.9047 77.287 72.057 80.5436 71.4625 84.1277V84.1277C71.1384 86.1159 71.2091 88.1484 71.6708 90.1092C72.1324 92.07 72.9758 93.9207 74.1529 95.5554C75.33 97.1902 76.8177 98.577 78.5309 99.6366C80.2441 100.696 82.1493 101.408 84.1377 101.731L139.796 109.598" stroke="black" stroke-width="8" stroke-linecap="round" stroke-linejoin="round"/>
<path d="M94.1146 45.9324H92.1646" stroke="white" stroke-width="5" stroke-miterlimit="10"/>
<path d="M155.281 45.9324H153.391" stroke="white" stroke-width="5" stroke-miterlimit="10"/>
<path d="M90.1152 121.043C88.3927 121.041 86.7416 120.355 85.5237 119.137C84.3057 117.92 83.6203 116.268 83.6177 114.546V16.5037H118.014L118.624 16.8735C120.164 17.8343 121.942 18.3436 123.757 18.3436C125.572 18.3436 127.351 17.8343 128.89 16.8735L129.5 16.5037H163.937V114.546C163.934 116.268 163.249 117.92 162.031 119.137C160.813 120.355 159.162 121.041 157.439 121.043H90.1152Z" fill="white"/>
<path d="M161.388 18.9927V114.536C161.388 115.596 160.967 116.613 160.217 117.363C159.467 118.113 158.45 118.534 157.389 118.534H90.1152C89.0547 118.534 88.0377 118.113 87.2878 117.363C86.538 116.613 86.1167 115.596 86.1167 114.536V18.9927H117.305C119.241 20.1944 121.474 20.8311 123.752 20.8311C126.031 20.8311 128.264 20.1944 130.2 18.9927H161.388ZM166.386 13.9946H128.79L127.581 14.7343C126.435 15.4529 125.11 15.834 123.757 15.834C122.405 15.834 121.08 15.4529 119.934 14.7343L118.724 13.9946H81.1187V114.546C81.1187 116.932 82.0665 119.22 83.7537 120.907C85.4409 122.595 87.7292 123.542 90.1152 123.542H157.389C159.775 123.542 162.064 122.595 163.751 120.907C165.438 119.22 166.386 116.932 166.386 114.546V13.9946Z" fill="white"/>
<path d="M140.476 7.99695C140.476 12.4297 138.715 16.6808 135.581 19.8152C132.446 22.9496 128.195 24.7105 123.762 24.7105C119.33 24.7105 115.078 22.9496 111.944 19.8152C108.81 16.6808 107.049 12.4297 107.049 7.99695H90.1152V114.546H157.389V7.99695H140.476Z" fill="white" stroke="black" stroke-width="8" stroke-linecap="round" stroke-linejoin="round"/>
<path d="M155.28 45.9324H146.284" stroke="black" stroke-width="8" stroke-linecap="round" stroke-linejoin="round"/>
<path d="M131.249 45.9324H108.688" stroke="black" stroke-width="8" stroke-linecap="round" stroke-linejoin="round" stroke-dasharray="15.05 15.05"/>
<path d="M101.171 45.9324H92.1743" stroke="black" stroke-width="8" stroke-linecap="round" stroke-linejoin="round"/>
<path d="M137.617 177.752L131.489 155.76L134.748 111.007C135.051 106.764 133.735 102.563 131.063 99.2521C128.392 95.9409 124.565 93.7655 120.354 93.1642C116.038 92.5476 111.651 93.6325 108.121 96.1897C104.59 98.7468 102.191 102.576 101.431 106.869L86.1968 192.666L92.7842 252.503" fill="white"/>
<path d="M137.617 177.752L131.489 155.76L134.748 111.007C135.051 106.764 133.735 102.563 131.063 99.2521C128.392 95.9409 124.565 93.7655 120.354 93.1642C116.038 92.5476 111.651 93.6325 108.121 96.1897C104.59 98.7468 102.191 102.576 101.431 106.869L86.1968 192.666L92.7842 252.503" stroke="black" stroke-width="8" stroke-linecap="round" stroke-linejoin="round"/>
</svg>

<svg width="260" height="260" fill="none" xmlns="http://www.w3.org/2000/svg"><path d="m93.474 153.781-5.508-1.61a14.9 14.9 0 0 1-10.146-18.462 14.843 14.843 0 0 1 5.678-7.997" fill="#fff"/><path d="m93.474 153.781-5.508-1.61a14.9 14.9 0 0 1-10.146-18.462v0a14.843 14.843 0 0 1 5.678-7.997" stroke="#000" stroke-width="8" stroke-linecap="round" stroke-linejoin="round"/><path d="m99.961 133.349-15.124-4.499a15.84 15.84 0 0 1-11.251-13.561 15.855 15.855 0 0 1 .575-6.161 15.798 15.798 0 0 1 6.208-8.537" fill="#fff"/><path d="m99.961 133.349-15.124-4.499a15.84 15.84 0 0 1-11.251-13.561 15.855 15.855 0 0 1 .575-6.161v0a15.798 15.798 0 0 1 6.208-8.537" stroke="#000" stroke-width="8" stroke-linecap="round" stroke-linejoin="round"/><path d="m171.434 252.503 16.354-97.842-20.212-75.971a11.618 11.618 0 0 0-10.826-7.387H86.597a15.334 15.334 0 0 0-15.134 12.825v0a15.334 15.334 0 0 0 12.675 17.603l55.658 7.867" stroke="#000" stroke-width="8" stroke-linecap="round" stroke-linejoin="round"/><path d="M94.115 45.932h-1.95m63.116 0h-1.89" stroke="#fff" stroke-width="5" stroke-miterlimit="10"/><path d="M90.115 121.043a6.504 6.504 0 0 1-6.497-6.497V16.504h34.396l.61.37a9.696 9.696 0 0 0 10.266 0l.61-.37h34.437v98.042a6.507 6.507 0 0 1-6.498 6.497H90.115Z" fill="#fff"/><path d="M161.388 18.993v95.543a3.998 3.998 0 0 1-3.999 3.998H90.115a3.998 3.998 0 0 1-3.998-3.998V18.993h31.188a12.225 12.225 0 0 0 12.895 0h31.188Zm4.998-4.998H128.79l-1.209.74a7.197 7.197 0 0 1-7.647 0l-1.21-.74H81.119v100.551a8.995 8.995 0 0 0 8.996 8.996h67.274a8.994 8.994 0 0 0 8.997-8.996V13.995Z" fill="#fff"/><path d="M140.476 7.997a16.715 16.715 0 0 1-28.532 11.818 16.715 16.715 0 0 1-4.895-11.818H90.115v106.549h67.274V7.996h-16.913Z" fill="#fff" stroke="#000" stroke-width="8" stroke-linecap="round" stroke-linejoin="round"/><path d="M155.28 45.932h-8.996" stroke="#000" stroke-width="8" stroke-linecap="round" stroke-linejoin="round"/><path d="M131.249 45.932h-22.561" stroke="#000" stroke-width="8" stroke-linecap="round" stroke-linejoin="round" stroke-dasharray="15.05 15.05"/><path d="M101.171 45.932h-8.997" stroke="#000" stroke-width="8" stroke-linecap="round" stroke-linejoin="round"/><path d="m137.617 177.752-6.128-21.992 3.259-44.753a16.81 16.81 0 0 0-14.394-17.843 16.802 16.802 0 0 0-18.923 13.705l-15.234 85.797 6.587 59.837" fill="#fff"/><path d="m137.617 177.752-6.128-21.992 3.259-44.753a16.81 16.81 0 0 0-14.394-17.843 16.802 16.802 0 0 0-18.923 13.705l-15.234 85.797 6.587 59.837" stroke="#000" stroke-width="8" stroke-linecap="round" stroke-linejoin="round"/></svg>
